X: 18
T:Wild Irishman (#94), The
M:6/8
L:1/8
S:The Hibernian Muse 1787
K:D
A|d2 e f2 d|g2 e f2 d|d2 e fed|c2 d e3|
d2 e f2 d|g2 e f2 d|fga gec|d3 d2:|
|:g|fed c2 A|ABA c2 A|fed c2 A|c3 e3|
fed c2 A|ABA c2 A|fga gec|d3 d2:||

